X:183
T:Macleods of Mishnish, The
C:Joe Buchanan's Scottish Tome - Page 272.1
I:272 1
Z:Carl Allison
C:Ian Holmes
R:Jig
L:1/8
M:6/8
K:A
A | "A"AcB BAF | FEC "E7"B,2 C | "A"A,CE FEC | EFA "E7"B2 A |
"A"AcB "D"BAF | "A"FEC "E7"B,2 A, | "A"CEA "E7"GBe | "A"cAA A2 :|
E | "A"Ace "F#m"aga | "Bm"fga "E7"bge | dcd "A"ecA | "B7"FGA "E7"BGE |
"A"Ace "F#m"aga | "Bm"fga "E7"bge | "Bm"dcB "E7"fed | "A"cAA A2 a |
"A"Ace "F#m"aaa | "Bm"fga "E7"bge | dcd "A"ecA | "B7"FGA "E7"BGE |
"A"AcB "D"BAF | "A"FEC "E7"B,2 A, | "A"CEA "E7"GBe | "A"cAA A2 |]

